epam-assets/icon-sources/18/action-settings.svg

<svg width="18" height="18" viewBox="0 0 18 18" fill="none" xmlns="http://www.w3.org/2000/svg">
<g id="18/action-settings">
<path id="icon" d="M6.93765 16.5L6.63765 14.1C6.47515 14.0375 6.32215 13.9625 6.17865 13.875C6.03465 13.7875 5.8939 13.6938 5.7564 13.5938L3.52515 14.5312L1.46265 10.9688L3.3939 9.50625C3.3814 9.41875 3.37515 9.33425 3.37515 9.25275V8.7465C3.37515 8.6655 3.3814 8.58125 3.3939 8.49375L1.46265 7.03125L3.52515 3.46875L5.7564 4.40625C5.8939 4.30625 6.03765 4.2125 6.18765 4.125C6.33765 4.0375 6.48765 3.9625 6.63765 3.9L6.93765 1.5H11.0626L11.3626 3.9C11.5251 3.9625 11.6784 4.0375 11.8224 4.125C11.9659 4.2125 12.1064 4.30625 12.2439 4.40625L14.4751 3.46875L16.5376 7.03125L14.6064 8.49375C14.6189 8.58125 14.6251 8.6655 14.6251 8.7465V9.25275C14.6251 9.33425 14.6126 9.41875 14.5876 9.50625L16.5189 10.9688L14.4564 14.5312L12.2439 13.5938C12.1064 13.6938 11.9626 13.7875 11.8126 13.875C11.6626 13.9625 11.5126 14.0375 11.3626 14.1L11.0626 16.5H6.93765ZM9.03765 11.625C9.76265 11.625 10.3814 11.3688 10.8939 10.8563C11.4064 10.3438 11.6626 9.725 11.6626 9C11.6626 8.275 11.4064 7.65625 10.8939 7.14375C10.3814 6.63125 9.76265 6.375 9.03765 6.375C8.30015 6.375 7.67815 6.63125 7.17165 7.14375C6.66565 7.65625 6.41265 8.275 6.41265 9C6.41265 9.725 6.66565 10.3438 7.17165 10.8563C7.67815 11.3688 8.30015 11.625 9.03765 11.625Z" fill="#6C6F80"/>
</g>
</svg>

<svg xmlns="http://www.w3.org/2000/svg" width="18" height="18" fill="none" viewBox="0 0 18 18">
  <path fill="#6C6F80" d="m6.938 16.5-.3-2.4a2.833 2.833 0 0 1-.46-.225 6.127 6.127 0 0 1-.422-.281l-2.23.937-2.063-3.562 1.93-1.463a1.793 1.793 0 0 1-.018-.253v-.507c0-.08.006-.165.019-.252L1.463 7.03l2.062-3.56 2.231.937c.138-.1.282-.193.432-.281.15-.088.3-.163.45-.225l.3-2.4h4.125l.3 2.4c.162.063.315.137.46.225.143.088.283.181.42.281l2.232-.937 2.063 3.562-1.932 1.463c.013.087.02.171.02.252v.507a.921.921 0 0 1-.038.253l1.93 1.463-2.062 3.562-2.212-.937c-.138.1-.281.194-.431.281-.15.088-.3.162-.45.225l-.3 2.4H6.938Zm2.1-4.875a2.53 2.53 0 0 0 1.856-.769A2.53 2.53 0 0 0 11.663 9a2.53 2.53 0 0 0-.77-1.856 2.53 2.53 0 0 0-1.855-.769c-.738 0-1.36.256-1.866.769A2.546 2.546 0 0 0 6.412 9c0 .725.254 1.344.76 1.856.506.513 1.128.769 1.866.769Z"/>
</svg>
